icon/cg/path-front.svg

<svg width="24" height="24" fill="none" xmlns="http://www.w3.org/2000/svg"><path fill-rule="evenodd" clip-rule="evenodd" d="M5 5h10v4h4v10H9v-4H5V5Zm6 6v6h6v-6h-6Z" fill="currentColor"/></svg>

<svg viewBox="0 0 24 24" fill="none" xmlns="http://www.w3.org/2000/svg" height="1em" width="1em">
  <path fill-rule="evenodd" clip-rule="evenodd" d="M5 5H15V9H19V19H9V15H5V5ZM11 11V17H17V11H11Z" fill="currentColor"/>
</svg>
